!!!OTL@@DE: Treue Liebe
!!!ONB: Volksweise: Ich hab' ein kleines H&uuml;ttchen nur.
!!!ODT: ~1780
!!!OMD: M&auml;ssig langsam
!!!LYR: Hauff, Wilhelm
!!!LDT: 1824
!!!OCL: Erk, Ludwig
!!!GCO: Deutscher Liederschatz, Band 1
**kern	**kern	**kern
*staff3	*staff2	*staff1
*Ipiano	*Ipiano	*Ivox
*>[A,B,B]	*>[A,B,B]	*>[A,B,B]
*>norep[A,B]	*>norep[A,B]	*>norep[A,B]
*>A	*>A	*>A
*clefF4	*clefG2	*clefG2
*k[b-]	*k[b-]	*k[b-]
*F:	*F:	*F:
*M3/4	*M3/4	*M3/4
*MM76	*MM76	*MM76
8r	(8c/L	8c/
4r	8f/	8f/
.	8g/J)	8g/
=1	=1	=1
*^	*^	*
(8F/L	2F\	4.a/	2f\	4.a/
8A/J	.	.	.	.
4c/)	.	.	.	.
.	.	8b-/L	.	8b-\
4B-/	4C\	8g/	4e\	8g/
.	.	8a/J	.	8a/
*v	*v	*	*	*
=2	=2	=2	=2
8F\ (8A\L	4.f/	4.f\	4.f/
8C\J	.	.	.
8F\)	.	.	.
*	*v	*v	*
8r	(8e/ 8g/L	8g/
4r	8f/ 8a/	8a/
.	8g/) 8b-/J	8b-\
=3	=3	=3
*	*^	*
8r	4.cc/	2a\	4.cc\
(8F\L	.	.	.
8A\	.	.	.
8F\J)	8dd/L	.	8dd\
4c\	8b-/	4e\	8b-\
.	8cc/J	.	8cc\
=4	=4	=4	=4
8r	4.a/	4.f\	4.a/
(8F/L	.	.	.
8FF/J)	.	.	.
*	*v	*v	*
=!|:	=!|:	=!|:
*>B	*>B	*>B
8r	8f/L	8f/
4r	8f/	8f/
.	8f/J	8f/
=5	=5	=5
*	*^	*
(8BB-\L	[2dd/	8b-\L	4.dd\
8F\	.	8f\	.
8B-\	.	8d\	.
8F\	.	8f\	8dd\
8BB-\	8b-/ 8dd/L]	8d\	8ff\
8D\J)	8b-/J	8f\J	8dd\
=6	=6	=6	=6
4.F\	(8a/L	8f\L	(4cc\
.	8cc/	8c\	.
.	8a/J)	8f\J	8a/)
(8F\L	8cc/L	8a\L	8cc\
8A\	8cc/	8f\	8cc\
8F\J)	8cc/J	8a\J	8cc\
=7	=7	=7	=7
(8C\L	4.b-/	4.g\	4.b-\
8c\	.	.	.
8B-\	.	.	.
*	*v	*v	*
8c\J)	8e/ 8g/	8g/
*	*^	*
4C\ 4G\	8cc/L	4e\	8cc\
.	(16cc/L	.	16cc\LL
.	16b-/JJ)	.	16b-\JJ
*	*v	*v	*
=8	=8	=8
8r	4.f/ 4.a/	4.a/
(8F/L	.	.
8FF/J)	.	.
==:|!	==:|!	==:|!
*-	*-	*-
!!!ENC: Craig Stuart Sapp
!!!END: 2004/06/28/
!!!EFL: 161/651
